X:1
T:Ominousness
T:Ominousness
T:Azimuth OST - 12 
T:MD Steele Arr. Rayerdyne 
C:MD Steele
%%score { 1 | ( 2 3 ) } 4
L:1/8
Q:1/4=70
M:4/4
K:F
V:1 bass nm="Piano" snm="Pia."
V:2 bass 
V:3 bass 
V:4 perc nm="Batterie" snm="Bat."
K:none
I:percmap ^c c 37 x
V:1
 D,2 A,2 D,2 A,2 | _E,2 B,2 E,2 B,2 |: D,2 A,2 D,2 A,2 | _E,2 B,2 E,2 B,2 :| %4
V:2
 z8 | z4 z G,A,B, |: A,4 z4 | z4 z G,A,B, :| %4
V:3
 x8 | x8 |: A,,8 | G,,8 :| %4
V:4
[K:C] .^c2 .^c^c/^c/ .^c2 .^c^c/^c/ | .^c2 .^c^c/^c/ .^c^c/^c/ ^c/^c/^c/^c/ |: %2
 .^c2 .^c^c/^c/ .^c2 .^c^c/^c/ | .^c2 .^c^c/^c/ .^c^c/^c/ ^c/^c/^c/^c/ :| %4

